X:48
C:Page 24
T:Moll in the Wood. MBe.48
S:Matthew Betham MS, Towcett Cumbria, 1815
O:England;Cumbria;Towcett
Z:VMP – Hugh Taylor, 2012
T:Moll in the Wad. MBe.48
T:Moll in the Wadd, aka. MBe.48
M:6/8
L:1/8
Q:3/8=120
R:.Jig
N:in a different hand is ‘Wad’
K:Dmix
c|BAB G2 F|E2 F G2 A|BAB G2 B|AFD D2 c|
BAB G2 F|E2 F G2 A|BcB dcB|AFD D2:|
|:c|BGB d2 c|BGB d2 c|BGB dcB|AFD D2 c|
BGB d2 c|BGB def|gfe dcB|AFD D2:|

